M204 P16000 T16000 ; sets acceleration (P, T), mm/sec^2
; generated by SuperSlicer 2.3.55 on 2020-12-23 at 23:35:22 UTC


;
;

;
;
; TODO: check the size of the extruder and the y-bar clearance. Optimize & test supports.

; external perimeters extrusion width = 0.50mm
; perimeters extrusion width = 0.50mm
; infill extrusion width = 0.50mm
; solid infill extrusion width = 0.50mm
; top infill extrusion width = 0.50mm
; first layer extrusion width = 0.50mm

; object:{"name":"3DBenchy","id":"3DBenchy.stl id:0 copy 0","object_center":[60.000000,60.000000,0.000000],"boundingbox_center":[60.000000,60.000000,24.000000],"boundingbox_size":[60.000999,31.004000,48.000000]}
; plater:{"center":[60.000000,60.000000,0.000000],"boundingbox_center":[60.000000,60.000000,24.000000],"boundingbox_size":[60.000999,31.004000,48.000000]}

;TYPE:Custom
; custom gcode: start_gcode
M190 S0
M109 S0 ; uncomment to remove set&wait temp gcode added automatically after this start gcode
print_start EXT_TEMP=270 BED_TEMP=105 CHAMBER=15
; custom gcode end: start_gcode
G21 ; set units to millimeters
G90 ; use absolute coordinates
M83 ; use relative distances for extrusion
;LAYER_CHANGE
;Z:0.25
;HEIGHT:0.25
; custom gcode: before_layer_gcode
;BEFORE_LAYER_CHANGE
;0.25

; custom gcode end: before_layer_gcode

G1 Z0.250000 F30000.000
; custom gcode: layer_gcode
;AFTER_LAYER_CHANGE
;0.25
; custom gcode end: layer_gcode

G1 E-1.50000 F2400.00000
G1 X32.224 Y50.036 F30000.000
G1 E1.50000 F2400.00000
;TYPE:Skirt
G1 F9000.000
M204 S15000
G1 X32.936 Y49.595 E0.03781
G1 X33.698 Y49.255 E0.03767
G1 X34.551 Y49.009 E0.04008
G1 X35.343 Y48.894 E0.03610
G1 X60.008 Y47.421 E1.11538
G1 X62.541 Y47.581 E0.11456
G1 X65.051 Y48.077 E0.11550
G1 X67.495 Y48.906 E0.11650
G1 X69.815 Y50.059 E0.11693
G1 X71.951 Y51.502 E0.11634
G1 X73.894 Y53.235 E0.11753
G1 X75.595 Y55.222 E0.11809
G1 X76.942 Y57.302 E0.11186
G1 X77.427 Y58.557 E0.06072
G1 X77.611 Y59.890 E0.06074
G1 X77.478 Y61.227 E0.06066
G1 X77.029 Y62.525 E0.06198
G1 X75.240 Y65.363 E0.15147
G1 X74.641 Y66.110 E0.04321
G1 X73.371 Y67.408 E0.08197
G1 X71.381 Y68.924 E0.11294
G1 X70.177 Y69.725 E0.06526
G1 X68.791 Y70.497 E0.07164
G1 X67.443 Y71.115 E0.06692
G1 X65.933 Y71.666 E0.07257
G1 X64.406 Y72.083 E0.07143
G1 X62.957 Y72.360 E0.06659
G1 X61.451 Y72.529 E0.06843
G1 X59.943 Y72.579 E0.06812
G1 X35.026 Y71.072 E1.12679
G1 X33.821 Y70.788 E0.05591
G1 X32.644 Y70.241 E0.05856
G1 X31.630 Y69.478 E0.05727
G1 X30.822 Y68.558 E0.05529
G1 X30.351 Y67.785 E0.04088
G1 X30.015 Y67.002 E0.03844
G1 X29.784 Y66.163 E0.03928
G1 X29.673 Y65.364 E0.03642
G1 X29.554 Y60.023 E0.24116
G1 X29.670 Y54.680 E0.24125
G1 X29.933 Y53.251 E0.06557
G1 X30.454 Y52.022 E0.06026
G1 X31.236 Y50.923 E0.06090
G1 X32.179 Y50.076 E0.05722
G1 X32.477 Y50.412 F30000.000
G1 F9000.000
G1 X33.177 Y49.972 E0.03731
G1 X33.897 Y49.657 E0.03549
G1 X34.670 Y49.440 E0.03622
G1 X35.400 Y49.336 E0.03328
G1 X60.011 Y47.867 E1.11292
G1 X62.486 Y48.024 E0.11195
G1 X64.937 Y48.509 E0.11278
G1 X67.324 Y49.318 E0.11376
G1 X69.591 Y50.445 E0.11431
G1 X71.678 Y51.855 E0.11368
G1 X73.577 Y53.549 E0.11486
G1 X75.235 Y55.486 E0.11511
G1 X76.545 Y57.508 E0.10876
G1 X76.995 Y58.670 E0.05626
G1 X77.165 Y59.918 E0.05686
G1 X77.035 Y61.165 E0.05656
G1 X76.599 Y62.388 E0.05863
G1 X74.863 Y65.125 E0.14628
G1 X74.289 Y65.834 E0.04118
G1 X73.069 Y67.079 E0.07871
G1 X71.012 Y68.640 E0.11656
G1 X69.723 Y69.478 E0.06940
G1 X68.430 Y70.179 E0.06637
G1 X67.090 Y70.777 E0.06625
G1 X65.782 Y71.245 E0.06271
G1 X64.300 Y71.650 E0.06935
G1 X62.886 Y71.919 E0.06498
G1 X61.417 Y72.084 E0.06671
G1 X59.945 Y72.133 E0.06650
G1 X35.103 Y70.632 E1.12341
G1 X33.945 Y70.359 E0.05371
G1 X32.864 Y69.852 E0.05389
G1 X31.918 Y69.137 E0.05353
G1 X31.155 Y68.258 E0.05252
G1 X30.733 Y67.552 E0.03714
G1 X30.427 Y66.827 E0.03553
G1 X30.217 Y66.052 E0.03622
G1 X30.116 Y65.302 E0.03419
G1 X30.000 Y60.023 E0.23835
G1 X30.115 Y54.709 E0.23993
G1 X30.362 Y53.372 E0.06137
G1 X30.851 Y52.226 E0.05625
G1 X31.587 Y51.200 E0.05698
G1 X32.432 Y50.452 E0.05095
G1 X32.727 Y50.789 F30000.000
G1 F9000.000
G1 X32.818 Y50.709 E0.00549
G1 X34.070 Y50.070 E0.06342
G1 X35.450 Y49.780 E0.06367
G1 X60.008 Y48.313 E1.11053
G1 X62.425 Y48.466 E0.10931
G1 X64.822 Y48.940 E0.11030
G1 X67.149 Y49.729 E0.11091
G1 X69.363 Y50.829 E0.11159
G1 X71.420 Y52.219 E0.11205
G1 X73.260 Y53.863 E0.11136
G1 X74.878 Y55.754 E0.11236
G1 X76.151 Y57.718 E0.10566
G1 X76.566 Y58.793 E0.05199
G1 X76.718 Y59.949 E0.05267
G1 X76.584 Y61.132 E0.05372
G1 X76.169 Y62.250 E0.05382
G1 X74.473 Y64.904 E0.14220
G1 X73.818 Y65.690 E0.04617
G1 X72.749 Y66.765 E0.06844
G1 X70.617 Y68.372 E0.12050
G1 X69.473 Y69.107 E0.06142
G1 X68.201 Y69.794 E0.06526
G1 X66.905 Y70.370 E0.06402
G1 X65.503 Y70.865 E0.06712
G1 X64.180 Y71.219 E0.06180
G1 X62.779 Y71.484 E0.06438
G1 X61.383 Y71.639 E0.06337
G1 X59.947 Y71.686 E0.06488
G1 X35.172 Y70.191 E1.12036
G1 X34.096 Y69.939 E0.04992
G1 X33.084 Y69.464 E0.05044
G1 X32.208 Y68.796 E0.04974
G1 X31.495 Y67.965 E0.04940
G1 X31.119 Y67.326 E0.03348
G1 X30.839 Y66.654 E0.03286
G1 X30.559 Y65.247 E0.06477
G1 X30.446 Y59.941 E0.23959
G1 X30.560 Y54.743 E0.23468
G1 X30.792 Y53.494 E0.05735
G1 X31.248 Y52.431 E0.05221
G1 X31.933 Y51.483 E0.05280
G1 X32.682 Y50.828 E0.04490
G1 X32.973 Y51.166 F30000.000
G1 F9000.000
G1 X33.102 Y51.055 E0.00769
G1 X34.231 Y50.486 E0.05708
G1 X35.500 Y50.224 E0.05846
G1 X60.007 Y48.760 E1.10821
G1 X62.369 Y48.909 E0.10688
G1 X64.704 Y49.370 E0.10740
G1 X66.980 Y50.142 E0.10851
G1 X69.140 Y51.215 E0.10885
G1 X71.147 Y52.572 E0.10937
G1 X72.939 Y54.174 E0.10850
G1 X74.521 Y56.022 E0.10982
G1 X75.766 Y57.944 E0.10335
G1 X76.154 Y58.988 E0.05029
G1 X76.272 Y60.079 E0.04953
G1 X76.121 Y61.144 E0.04856
G1 X75.706 Y62.169 E0.04994
G1 X74.088 Y64.677 E0.13470
G1 X73.392 Y65.495 E0.04847
G1 X72.433 Y66.448 E0.06106
G1 X70.131 Y68.164 E0.12961
G1 X68.961 Y68.887 E0.06206
G1 X67.683 Y69.548 E0.06495
G1 X66.393 Y70.090 E0.06315
G1 X65.102 Y70.520 E0.06144
G1 X62.516 Y71.072 E0.11936
G1 X61.144 Y71.207 E0.06222
G1 X59.783 Y71.238 E0.06148
G1 X35.245 Y69.751 E1.10968
G1 X34.242 Y69.517 E0.04649
G1 X33.310 Y69.079 E0.04649
G1 X32.506 Y68.464 E0.04570
G1 X31.843 Y67.683 E0.04620
G1 X31.254 Y66.489 E0.06012
G1 X31.003 Y65.195 E0.05950
G1 X30.893 Y59.941 E0.23723
G1 X31.005 Y54.781 E0.23297
G1 X31.220 Y53.620 E0.05328
G1 X31.642 Y52.641 E0.04813
G1 X32.287 Y51.758 E0.04936
G1 X32.928 Y51.206 E0.03820
; printing object 3DBenchy.stl id:0 copy 0
M104 S270 ; set temperature
G1 E-1.50000 F2400.00000
G1 X61.591 Y60.702 F30000.000
G1 E1.50000 F2400.00000
;TYPE:Perimeter
G1 F9000.000
G1 X62.107 Y59.820 E0.04614
G1 X62.381 Y60.488 E0.03262
G1 X62.977 Y62.099 E0.07751
G1 X63.243 Y62.706 E0.02994
G1 X63.052 Y63.117 E0.02045
G1 X62.843 Y63.663 E0.02643
G1 X62.758 Y63.804 E0.00741
G1 X62.128 Y63.995 E0.02975
G1 X61.957 Y63.715 E0.01482
G1 X62.263 Y63.399 E0.01988
G1 X62.446 Y63.036 E0.01833
G1 X62.497 Y62.623 E0.01875
G1 X62.436 Y62.215 E0.01866
G1 X62.252 Y61.802 E0.02042
G1 X61.622 Y60.753 E0.05523
G1 E-1.50000 F2400.00000
G1 X66.292 Y61.512 F30000.000
G1 E1.50000 F2400.00000
G1 F9000.000
G1 X66.856 Y59.873 E0.07822
G1 X67.141 Y60.073 E0.01574
G1 X67.703 Y60.213 E0.02614
G1 X67.441 Y60.531 E0.01861
G1 X66.808 Y61.391 E0.04823
G1 X66.643 Y61.675 E0.01482
G1 X66.346 Y61.537 E0.01476
G1 E-1.50000 F2400.00000
G1 X70.035 Y61.268 F30000.000
G1 E1.50000 F2400.00000
G1 F9000.000
G1 X70.401 Y60.787 E0.02727
G1 X70.966 Y59.977 E0.04458
G1 X71.127 Y59.666 E0.01579
G1 X71.211 Y59.414 E0.01203
G1 X71.256 Y59.106 E0.01404
G1 X71.233 Y58.695 E0.01858
G1 X71.534 Y58.590 E0.01442
G1 X71.840 Y59.023 E0.02394
G1 X72.293 Y59.769 E0.03941
G1 X72.348 Y59.984 E0.01002
G1 X72.337 Y60.099 E0.00520
G1 X72.292 Y60.232 E0.00635
G1 X71.854 Y60.957 E0.03821
G1 X71.149 Y61.978 E0.05602
G1 X70.879 Y61.638 E0.01958
G1 X70.506 Y61.439 E0.01912
G1 X70.092 Y61.289 E0.01988
G1 E-1.50000 F2400.00000
G1 X70.682 Y57.507 F30000.000
G1 E1.50000 F2400.00000
G1 F9000.000
G1 X70.486 Y57.786 E0.01540
G1 X70.349 Y57.729 E0.00672
G1 X69.993 Y57.684 E0.01618
G1 X67.686 Y57.699 E0.10418
G1 X67.171 Y57.849 E0.02420
G1 X66.758 Y58.101 E0.02184
G1 X66.323 Y57.806 E0.02372
G1 X65.934 Y57.688 E0.01836
G1 X65.521 Y57.747 E0.01882
G1 X65.238 Y57.895 E0.01444
G1 X64.975 Y58.139 E0.01617
G1 X64.754 Y58.455 E0.01739
G1 X64.546 Y58.909 E0.02253
G1 X64.323 Y58.351 E0.02711
G1 X64.071 Y58.042 E0.01798
G1 X63.738 Y57.826 E0.01793
G1 X63.403 Y57.715 E0.01594
G1 X63.006 Y57.682 E0.01801
G1 X62.637 Y57.774 E0.01714
G1 X62.389 Y57.911 E0.01280
G1 X62.136 Y58.153 E0.01581
G1 X61.926 Y57.934 E0.01370
G1 X61.486 Y57.704 E0.02241
G1 X61.009 Y57.697 E0.02157
G1 X60.638 Y57.867 E0.01842
G1 X60.366 Y58.087 E0.01578
G1 X60.191 Y58.291 E0.01211
G1 X59.890 Y57.984 E0.01939
G1 X59.614 Y57.796 E0.01510
G1 X59.317 Y57.695 E0.01416
G1 X59.003 Y57.690 E0.01414
G1 X58.649 Y57.776 E0.01645
G1 X58.395 Y57.908 E0.01290
G1 X58.186 Y58.085 E0.01239
G1 X58.020 Y58.301 E0.01230
G1 X57.894 Y58.602 E0.01471
G1 X57.874 Y59.053 E0.02038
G1 X57.970 Y59.415 E0.01693
G1 X58.078 Y59.666 E0.01232
G1 X58.710 Y60.761 E0.05708
G1 X58.520 Y61.028 E0.01480
G1 X58.302 Y61.456 E0.02167
G1 X57.990 Y61.058 E0.02286
G1 X57.718 Y60.844 E0.01559
G1 X57.423 Y60.696 E0.01491
G1 X57.085 Y60.600 E0.01586
G1 X56.764 Y60.596 E0.01452
G1 X56.336 Y60.636 E0.01937
G1 X56.406 Y60.204 E0.01974
G1 X56.397 Y59.426 E0.03512
G1 X56.289 Y58.746 E0.03107
G1 X56.198 Y58.418 E0.01538
G1 X56.026 Y57.983 E0.02113
G1 X55.727 Y57.473 E0.02668
G1 X55.387 Y57.076 E0.02361
G1 X54.951 Y56.728 E0.02514
G1 X54.463 Y56.490 E0.02453
G1 X53.900 Y56.343 E0.02626
G1 X53.382 Y56.275 E0.02359
G1 X51.706 Y56.237 E0.07569
G1 X51.293 Y56.281 E0.01873
G1 X50.866 Y56.447 E0.02069
G1 X50.632 Y56.628 E0.01338
G1 X50.441 Y56.869 E0.01386
G1 X50.218 Y57.505 E0.03043
G1 X49.885 Y56.958 E0.02889
G1 X49.615 Y56.668 E0.01790
G1 X49.383 Y56.488 E0.01326
G1 X49.037 Y56.302 E0.01775
G1 X48.757 Y56.202 E0.01342
G1 X48.362 Y56.117 E0.01824
G1 X48.020 Y56.080 E0.01552
G1 X47.539 Y56.079 E0.02169
G1 X47.167 Y56.119 E0.01692
G1 X46.758 Y56.212 E0.01889
G1 X46.365 Y56.369 E0.01913
G1 X46.026 Y56.583 E0.01807
G1 X45.781 Y56.804 E0.01490
G1 X45.467 Y56.475 E0.02050
G1 X45.139 Y56.311 E0.01656
G1 X44.858 Y56.251 E0.01298
G1 X41.501 Y56.260 E0.15154
G1 X40.799 Y56.215 E0.03173
G1 X40.430 Y56.283 E0.01695
G1 X40.094 Y56.466 E0.01727
G1 X39.715 Y56.895 E0.02585
G1 X39.365 Y56.597 E0.02076
G1 X39.002 Y56.374 E0.01927
G1 X38.619 Y56.218 E0.01865
G1 X38.172 Y56.114 E0.02072
G1 X37.614 Y56.076 E0.02522
G1 X37.284 Y56.088 E0.01491
G1 X36.923 Y56.136 E0.01646
G1 X36.555 Y56.227 E0.01710
G1 X36.269 Y56.332 E0.01376
G1 X35.992 Y56.465 E0.01386
G1 X35.629 Y56.698 E0.01945
G1 X35.385 Y56.901 E0.01435
G1 X34.907 Y57.410 E0.03149
G1 X34.915 Y55.077 E0.10529
G1 X34.955 Y54.816 E0.01191
G1 X34.995 Y54.694 E0.00580
G1 X35.058 Y54.565 E0.00647
G1 X35.211 Y54.375 E0.01101
G1 X35.396 Y54.245 E0.01020
G1 X35.597 Y54.168 E0.00971
G1 X35.848 Y54.128 E0.01149
G1 X59.197 Y52.705 E1.05594
G1 X60.062 Y52.680 E0.03906
G1 X61.086 Y52.717 E0.04624
G1 X61.863 Y52.796 E0.03527
G1 X62.644 Y52.919 E0.03568
G1 X63.691 Y53.157 E0.04847
G1 X64.458 Y53.384 E0.03610
G1 X65.475 Y53.762 E0.04896
G1 X66.292 Y54.133 E0.04052
G1 X67.168 Y54.603 E0.04488
G1 X67.858 Y55.032 E0.03669
G1 X68.737 Y55.665 E0.04889
G1 X69.502 Y56.306 E0.04504
G1 X70.146 Y56.924 E0.04029
G1 X70.642 Y57.463 E0.03306
G1 E-1.50000 F2400.00000
G1 X50.336 Y59.266 F30000.000
G1 E1.50000 F2400.00000
G1 F9000.000
G1 X50.335 Y59.986 E0.03252
G1 X49.949 Y59.632 E0.02367
G1 X49.839 Y59.473 E0.00875
G1 X50.033 Y59.175 E0.01606
G1 X50.279 Y59.249 E0.01157
G1 E-1.50000 F2400.00000
G1 X50.270 Y62.388 F30000.000
G1 E1.50000 F2400.00000
G1 F9000.000
G1 X50.453 Y63.005 E0.02905
G1 X50.643 Y63.314 E0.01639
G1 X50.855 Y63.508 E0.01296
G1 X51.120 Y63.650 E0.01360
G1 X51.484 Y63.719 E0.01670
G1 X52.054 Y63.673 E0.02581
G1 X52.861 Y63.681 E0.03645
G1 X53.432 Y63.651 E0.02581
G1 X54.054 Y63.550 E0.02843
G1 X54.603 Y63.358 E0.02624
G1 X55.109 Y63.020 E0.02748
G1 X55.470 Y63.600 E0.03085
G1 X55.746 Y63.839 E0.01648
G1 X56.027 Y64.001 E0.01463
G1 X56.332 Y64.110 E0.01463
G1 X56.652 Y64.159 E0.01460
G1 X56.988 Y64.149 E0.01517
G1 X57.440 Y64.033 E0.02107
G1 X57.746 Y63.852 E0.01605
G1 X58.183 Y63.443 E0.02700
G1 X58.388 Y63.669 E0.01375
G1 X58.714 Y63.800 E0.01591
G1 X59.159 Y63.870 E0.02031
G1 X59.618 Y63.728 E0.02170
G1 X59.864 Y63.500 E0.01513
G1 X60.112 Y63.170 E0.01863
G1 X60.388 Y63.572 E0.02203
G1 X60.751 Y63.815 E0.01972
G1 X61.174 Y63.901 E0.01948
G1 X61.561 Y63.858 E0.01756
G1 X61.833 Y63.756 E0.01314
G1 X62.014 Y64.065 E0.01615
G1 X61.729 Y64.303 E0.01675
G1 X61.560 Y64.593 E0.01515
G1 X61.485 Y64.957 E0.01675
G1 X61.501 Y65.233 E0.01247
G1 X61.566 Y65.501 E0.01247
G1 X61.736 Y65.856 E0.01775
G1 X62.067 Y66.197 E0.02147
G1 X62.364 Y66.346 E0.01501
G1 X62.724 Y66.419 E0.01659
G1 X63.093 Y66.403 E0.01664
G1 X63.471 Y66.318 E0.01751
G1 X63.755 Y66.220 E0.01354
G1 X64.115 Y66.042 E0.01814
G1 X64.501 Y65.730 E0.02239
G1 X64.740 Y65.424 E0.01755
G1 X64.891 Y65.170 E0.01330
G1 X65.182 Y64.528 E0.03186
G1 X65.570 Y63.529 E0.04836
G1 X66.055 Y62.174 E0.06499
G1 X66.402 Y62.228 E0.01585
G1 X66.421 Y62.834 E0.02734
G1 X66.590 Y63.293 E0.02209
G1 X66.805 Y63.568 E0.01578
G1 X67.119 Y63.790 E0.01733
G1 X67.477 Y63.888 E0.01675
G1 X67.735 Y63.900 E0.01166
G1 X68.248 Y63.870 E0.02321
G1 X68.866 Y63.870 E0.02790
G1 X68.965 Y64.154 E0.01360
G1 X68.138 Y64.778 E0.04677
G1 X67.444 Y65.232 E0.03743
G1 X66.718 Y65.648 E0.03778
G1 X65.865 Y66.069 E0.04294
G1 X65.011 Y66.422 E0.04172
G1 X64.212 Y66.694 E0.03812
G1 X63.381 Y66.922 E0.03888
G1 X62.461 Y67.114 E0.04242
G1 X61.623 Y67.233 E0.03819
G1 X60.753 Y67.303 E0.03940
G1 X59.830 Y67.319 E0.04169
G1 X59.180 Y67.293 E0.02938
G1 X35.853 Y65.872 E1.05492
G1 X35.551 Y65.820 E0.01382
G1 X35.355 Y65.733 E0.00971
G1 X35.251 Y65.661 E0.00570
G1 X35.046 Y65.412 E0.01455
G1 X34.951 Y65.172 E0.01162
G1 X34.923 Y65.022 E0.00692
G1 X34.911 Y62.510 E0.11338
G1 X35.332 Y62.979 E0.02844
G1 X35.571 Y63.186 E0.01428
G1 X35.927 Y63.428 E0.01944
G1 X36.203 Y63.569 E0.01397
G1 X36.487 Y63.681 E0.01381
G1 X36.822 Y63.774 E0.01569
G1 X37.143 Y63.828 E0.01469
G1 X37.634 Y63.854 E0.02217
G1 X38.098 Y63.823 E0.02099
G1 X38.519 Y63.741 E0.01938
G1 X38.916 Y63.600 E0.01901
G1 X39.273 Y63.401 E0.01846
G1 X39.587 Y63.146 E0.01826
G1 X39.848 Y62.837 E0.01826
G1 X40.040 Y62.501 E0.01747
G1 X40.161 Y62.170 E0.01592
G1 X40.167 Y61.900 E0.01217
G1 X40.080 Y61.539 E0.01674
G1 X39.922 Y61.277 E0.01382
G1 X39.739 Y61.086 E0.01195
G1 X39.518 Y60.930 E0.01220
G1 X39.248 Y60.810 E0.01336
G1 X38.778 Y60.733 E0.02147
G1 X38.391 Y60.798 E0.01772
G1 X38.132 Y60.915 E0.01283
G1 X37.919 Y61.075 E0.01201
G1 X37.784 Y61.236 E0.00949
G1 X37.574 Y61.266 E0.00956
G1 X37.373 Y61.237 E0.00917
G1 X37.223 Y61.171 E0.00742
G1 X37.126 Y61.096 E0.00553
G1 X37.041 Y60.982 E0.00641
G1 X36.976 Y60.841 E0.00704
G1 X36.915 Y60.625 E0.01012
G1 X36.875 Y60.345 E0.01276
G1 X36.859 Y59.926 E0.01893
G1 X36.879 Y59.546 E0.01716
G1 X36.922 Y59.278 E0.01227
G1 X36.980 Y59.081 E0.00928
G1 X37.041 Y58.950 E0.00652
G1 X37.133 Y58.825 E0.00701
G1 X37.335 Y58.703 E0.01064
G1 X37.426 Y58.678 E0.00425
G1 X37.590 Y58.670 E0.00742
G1 X38.276 Y59.065 E0.03573
G1 X38.638 Y59.178 E0.01711
G1 X39.025 Y59.196 E0.01751
G1 X39.427 Y59.075 E0.01894
G1 X39.693 Y58.879 E0.01491
G1 X39.996 Y58.508 E0.02163
G1 X40.376 Y58.755 E0.02043
G1 X40.779 Y58.845 E0.01866
G1 X41.508 Y58.772 E0.03309
G1 X41.486 Y59.129 E0.01616
G1 X41.503 Y61.907 E0.12539
G1 X41.463 Y62.411 E0.02283
G1 X41.478 Y62.739 E0.01481
G1 X41.554 Y63.004 E0.01243
G1 X41.702 Y63.254 E0.01312
G1 X41.911 Y63.456 E0.01312
G1 X42.149 Y63.590 E0.01233
G1 X42.404 Y63.674 E0.01214
G1 X42.701 Y63.713 E0.01352
G1 X43.173 Y63.648 E0.02151
G1 X43.544 Y63.446 E0.01905
G1 X43.820 Y63.134 E0.01881
G1 X43.972 Y62.784 E0.01722
G1 X44.039 Y62.415 E0.01697
G1 X44.023 Y58.793 E0.16349
G1 X44.506 Y58.800 E0.02181
G1 X44.856 Y58.768 E0.01584
G1 X45.271 Y58.634 E0.01967
